X:53
T:Harlequin Hornpipe. GS.053
M:2/2
L:1/8
Q:1/2=90
S:George Spencer m/s, Leeds,1831
R:.Hornpipe
O:England
A:Leeds
N:â€™George Spencer Book Leeds 1831â€² written at end
N:1 â€“ this note is written as â€˜Dâ€™, but by comparison with bar 5 and
N:because it makes more sense, here shown as â€˜Eâ€™..Cherri.
H:1831
Z:vmp.Cherri Graebe
K:Bb major
FA | B2B2 (Bd)(câ€1â€³e) | d2d2 (df)(eg) | fbag fedc | (BA)(cA) ecAF |!
B2B2 (Bd)(ce) | d2d2 dfeg | fbag fddc | B2B2B2 :|!
|: FE | DBFB DBFB | EBGB EBGB |ecAc ecAc | dBEB dBEB |!
DBFB DBFB | EBGB EBGB | ecAc ecAF | B2B2 HB2 ğŸ˜

